svgs/light/book.svg

<svg xmlns="http://www.w3.org/2000/svg" viewBox="0 0 448 512"><!-- Font Awesome Pro 6.0.0-alpha2 by @fontawesome - https://fontawesome.com License - https://fontawesome.com/license (Commercial License) --><path d="M448 368V48C448 21.49 426.51 0 400 0H80C35.817 0 0 35.817 0 80V448C0 483.346 28.654 512 64 512H432C440.844 512 448 504.844 448 496S440.844 480 432 480H416V413.053C434.584 406.426 448 388.832 448 368ZM32 80C32 53.49 53.49 32 80 32H96V384H64C52.291 384 41.451 387.389 32 392.9V80ZM384 480H64C46.359 480 32 465.641 32 448S46.359 416 64 416H384V480ZM400 384H128V32H400C408.828 32 416 39.172 416 48V368C416 376.828 408.828 384 400 384ZM352 128H192C183.156 128 176 135.156 176 144S183.156 160 192 160H352C360.844 160 368 152.844 368 144S360.844 128 352 128ZM352 224H192C183.156 224 176 231.156 176 240S183.156 256 192 256H352C360.844 256 368 248.844 368 240S360.844 224 352 224Z"/></svg>

<svg xmlns="http://www.w3.org/2000/svg" viewBox="0 0 448 512"><!--! Font Awesome Pro 6.3.0 by @fontawesome - https://fontawesome.com License - https://fontawesome.com/license (Commercial License) Copyright 2023 Fonticons, Inc. --><path d="M448 368v-320C448 21.49 426.5 0 400 0h-320C35.82 0 0 35.82 0 80V448c0 35.35 28.65 64 64 64h368c8.844 0 16-7.156 16-16S440.8 480 432 480H416v-66.95C434.6 406.4 448 388.8 448 368zM32 80C32 53.49 53.49 32 80 32H96v352H64c-11.71 0-22.55 3.389-32 8.9V80zM384 480H64c-17.64 0-32-14.36-32-32s14.36-32 32-32h320V480zM400 384H128V32h272C408.8 32 416 39.17 416 48v320C416 376.8 408.8 384 400 384zM352 128H192C183.2 128 176 135.2 176 144S183.2 160 192 160h160c8.844 0 16-7.156 16-16S360.8 128 352 128zM352 224H192C183.2 224 176 231.2 176 240S183.2 256 192 256h160c8.844 0 16-7.156 16-16S360.8 224 352 224z"/></svg>
